;FLAVOR:Marlin
;TIME:16267
;Filament used: 4.71597m
;Layer height: 0.1
;MINX:85.307
;MINY:83.876
;MINZ:0.2
;MAXX:134.693
;MAXY:134.718
;MAXZ:19.2
;TARGET_MACHINE.NAME:Creality Ender-3 Pro
;Generated with Cura_SteamEngine 5.6.0
M82 ;absolute extrusion mode
; Ender 3 Custom Start G-code
G92 E0 ; Reset Extruder
G28 ; Home all axes
G1 Z5.0 F3000 ; Move Z Axis up a bit during heating to not damage bed
M104 S120 ; Start heating up the nozzle most of the way
M190 S60 ; Start heating the bed, wait until target temperature reached
M109 S235.0 ; Finish heating the nozzle
G1 Z2.0 F3000 ; Move Z Axis up little to prevent scratching of Heat Bed
G1 X0.1 Y20 Z0.3 F5000.0 ; Move to start position
G1 X0.1 Y200.0 Z0.3 F1500.0 E15 ; Draw the first line
G1 X0.4 Y200.0 Z0.3 F5000.0 ; Move to side a little
G1 X0.4 Y20 Z0.3 F1500.0 E30 ; Draw the second line
G92 E0 ; Reset Extruder
G1 Z2.0 F3000 ; Move Z Axis up little to prevent scratching of Heat Bed
G1 X5 Y20 Z0.3 F5000.0 ; Move over to prevent blob squish
G92 E0
G92 E0
G1 F1500 E-6.5
;LAYER_COUNT:191
;LAYER:0
M107
G0 F6000 X87.57 Y86.778 Z0.2
;TYPE:SKIRT
G1 F1500 E0
G1 F900 X89.34 Y85.249 E0.07779
G1 X91.34 Y84.344 E0.15081
G1 X92.823 Y84.125 E0.20067
G1 X96.939 Y84.077 E0.33758
G1 X97.561 Y84.093 E0.35827
G1 X99.253 Y84.1 E0.41455
G1 X99.793 Y84.026 E0.43268
G1 X101.126 Y83.963 E0.47706
G1 X101.575 Y84.089 E0.49257
G1 X101.84 Y84.082 E0.50139
G1 X102.486 Y83.913 E0.5236
G1 X105.026 Y83.876 E0.60809
G1 X105.619 Y84.117 E0.62938
G1 X114.824 Y84.058 E0.93554
G1 X115.268 Y83.936 E0.95086
G1 X117.169 Y83.895 E1.0141
G1 X117.762 Y84.029 E1.03432
G1 X118.305 Y84.065 E1.05242
G1 X118.618 Y84.068 E1.06283
G1 X119.427 Y83.889 E1.09039
G1 X119.585 Y83.886 E1.09565
G1 X120.694 Y84.086 E1.13313
G1 X121.094 Y84.092 E1.14643
G1 X126.836 Y84.076 E1.33741
G1 X128.996 Y84.595 E1.4113
G1 X130.805 Y85.732 E1.48236
G1 X132.144 Y86.997 E1.54363
G1 X133.005 Y88.513 E1.60162
G1 X133.041 Y88.592 E1.6045
G1 X133.341 Y89.021 E1.62192
G1 X134.182 Y91.319 E1.70331
G1 X134.182 Y95.273 E1.83482
G1 X134.693 Y97.009 E1.89501
G1 X134.693 Y127.937 E2.92367
G1 X133.896 Y130.203 E3.00357
G1 X132.717 Y132.055 E3.07659
G1 X130.77 Y133.598 E3.15922
G1 X128.96 Y134.393 E3.22497
G1 X127.442 Y134.713 E3.27657
G1 X92.113 Y134.718 E4.45161
G1 X89.796 Y133.906 E4.53327
G1 X87.981 Y132.754 E4.60477
G1 X86.428 Y130.801 E4.68776
G1 X85.632 Y128.985 E4.75371
G1 X85.312 Y127.467 E4.80531
G1 X85.307 Y96.919 E5.82134
G1 X85.817 Y95.317 E5.87726
G1 X85.831 Y92.696 E5.96443
G1 X85.783 Y92.135 E5.98316
G1 X85.8 Y90.492 E6.03781
G1 X86.473 Y88.529 E6.10683
G1 X87.57 Y86.778 E6.17556
G0 F6000 X87.877 Y87.041
G1 F900 X89.558 Y85.589 E6.24944
G1 X91.451 Y84.732 E6.31855
G1 X92.828 Y84.525 E6.36486
G1 X96.929 Y84.477 E6.50127
G1 X97.551 Y84.493 E6.52197
G1 X99.278 Y84.5 E6.57941
G1 X99.812 Y84.426 E6.59734
G1 X101.082 Y84.366 E6.63962
G1 X101.526 Y84.491 E6.65497
G1 X101.897 Y84.481 E6.66731
G1 X102.541 Y84.312 E6.68945
G1 X104.952 Y84.277 E6.76965
G1 X105.543 Y84.518 E6.79088
G1 X114.88 Y84.458 E7.10144
G1 X115.327 Y84.335 E7.11686
G1 X117.13 Y84.296 E7.17684
G1 X117.705 Y84.426 E7.19645
G1 X118.292 Y84.465 E7.21601
G1 X118.662 Y84.469 E7.22832
G1 X119.514 Y84.28 E7.25735
G1 X120.653 Y84.486 E7.29585
G1 X121.09 Y84.492 E7.31038
G1 X126.788 Y84.476 E7.4999
G1 X128.838 Y84.969 E7.57003
G1 X130.559 Y86.05 E7.63762
G1 X131.825 Y87.247 E7.69557
G1 X132.641 Y88.68 E7.75042
G1 X132.691 Y88.789 E7.75441
G1 X132.982 Y89.206 E7.77132
G1 X133.782 Y91.391 E7.84871
G1 X133.782 Y95.332 E7.97979
G1 X134.293 Y97.068 E8.03998
G1 X134.293 Y127.869 E9.06442
G1 X133.534 Y130.027 E9.14051
G1 X132.415 Y131.785 E9.20982
G1 X130.564 Y133.252 E9.28837
G1 X128.836 Y134.011 E9.35115
G1 X127.403 Y134.313 E9.39986
G1 X92.182 Y134.318 E10.57131
G1 X89.97 Y133.543 E10.64927
G1 X88.252 Y132.452 E10.71696
G1 X86.773 Y130.592 E10.796
G1 X86.014 Y128.861 E10.85886
G1 X85.712 Y127.428 E10.90757
G1 X85.707 Y96.98 E11.92027
G1 X86.217 Y95.379 E11.97616
G1 X86.231 Y92.675 E12.0661
G1 X86.182 Y92.101 E12.08526
G1 X86.199 Y90.56 E12.13651
G1 X86.836 Y88.703 E12.20181
G1 X87.877 Y87.041 E12.26704
G0 F6000 X88.183 Y87.306
G1 F900 X89.778 Y85.928 E12.33714
G1 X91.563 Y85.12 E12.40231
G1 X92.887 Y84.921 E12.44684
G1 X96.919 Y84.877 E12.58096
G1 X97.541 Y84.893 E12.60165
G1 X99.305 Y84.9 E12.66032
G1 X99.831 Y84.826 E12.67799
G1 X101.038 Y84.769 E12.71818
G1 X101.477 Y84.892 E12.73334
G1 X101.954 Y84.88 E12.74921
G1 X102.596 Y84.711 E12.77129
G1 X104.877 Y84.678 E12.84717
G1 X105.467 Y84.919 E12.86836
G1 X114.937 Y84.858 E13.18334
G1 X115.386 Y84.734 E13.19884
G1 X117.091 Y84.697 E13.25556
G1 X117.648 Y84.823 E13.27455
G1 X118.279 Y84.865 E13.29559
G1 X118.702 Y84.87 E13.30966
G1 X119.52 Y84.688 E13.33753
G1 X120.612 Y84.885 E13.37444
G1 X121.085 Y84.892 E13.39017
G1 X126.741 Y84.876 E13.57829
G1 X128.68 Y85.342 E13.64462
G1 X130.313 Y86.368 E13.70876
G1 X131.507 Y87.497 E13.76342
G1 X132.293 Y88.878 E13.81627
G1 X132.341 Y88.987 E13.82023
G1 X132.623 Y89.391 E13.83661
G1 X133.382 Y91.463 E13.91001
G1 X133.382 Y95.406 E14.04115
G1 X133.428 Y95.525 E14.0454
G1 X133.893 Y97.126 E14.10085
G1 X133.893 Y127.801 E15.1211
G1 X133.172 Y129.851 E15.19338
G1 X132.114 Y131.513 E15.25891
G1 X130.356 Y132.907 E15.33353
G1 X128.712 Y133.629 E15.39325
G1 X127.364 Y133.913 E15.43907
G1 X92.248 Y133.918 E16.60703
G1 X90.148 Y133.182 E16.68104
G1 X88.523 Y132.15 E16.74507
G1 X87.118 Y130.383 E16.82015
G1 X86.396 Y128.737 E16.87994
G1 X86.112 Y127.389 E16.92575
G1 X86.107 Y97.041 E17.93513
G1 X86.617 Y95.441 E17.99099
G1 X86.631 Y92.654 E18.08368
G1 X86.581 Y92.067 E18.10328
G1 X86.598 Y90.628 E18.15114
G1 X87.199 Y88.877 E18.21272
G1 X88.183 Y87.306 E18.27437
G0 F6000 X88.49 Y87.569
G1 F900 X89.996 Y86.268 E18.34056
G1 X91.675 Y85.508 E18.40186
G1 X92.946 Y85.317 E18.44461
G1 X96.909 Y85.277 E18.57643
G1 X97.531 Y85.293 E18.59712
G1 X99.333 Y85.3 E18.65706
G1 X99.85 Y85.226 E18.67443
G1 X100.994 Y85.172 E18.71252
G1 X101.428 Y85.294 E18.72751
G1 X102.011 Y85.279 E18.74691
G1 X102.651 Y85.11 E18.76893
G1 X104.802 Y85.079 E18.84048
G1 X105.391 Y85.32 E18.86164
G1 X114.991 Y85.258 E19.18095
G1 X115.442 Y85.133 E19.19651
G1 X117.052 Y85.098 E19.25008
G1 X117.591 Y85.22 E19.26846
G1 X118.266 Y85.265 E19.29096
G1 X118.742 Y85.27 E19.30679
G1 X119.526 Y85.096 E19.3335
G1 X120.572 Y85.285 E19.36885
G1 X121.08 Y85.292 E19.38575
G1 X126.693 Y85.276 E19.57244
G1 X128.522 Y85.716 E19.63501
G1 X130.067 Y86.686 E19.69568
G1 X131.191 Y87.749 E19.74714
G1 X131.927 Y89.04 E19.79657
G1 X131.991 Y89.184 E19.80181
G1 X132.264 Y89.577 E19.81772
G1 X132.982 Y91.535 E19.88709
G1 X132.982 Y95.483 E20.0184
G1 X133.044 Y95.637 E20.02392
G1 X133.493 Y97.183 E20.07746
G1 X133.493 Y127.733 E21.09356
G1 X132.81 Y129.675 E21.16203
G1 X131.813 Y131.241 E21.22378
G1 X130.148 Y132.562 E21.29447
G1 X128.588 Y133.247 E21.35113
G1 X127.325 Y133.513 E21.39406
G1 X92.314 Y133.518 E22.55853
G1 X90.326 Y132.821 E22.6286
G1 X88.794 Y131.848 E22.68896
G1 X87.463 Y130.174 E22.7601
G1 X86.778 Y128.613 E22.81679
G1 X86.512 Y127.35 E22.85972
G1 X86.507 Y97.103 E23.86574
G1 X87.017 Y95.504 E23.92156
G1 X87.031 Y92.643 E24.01672
G1 X86.981 Y92.072 E24.03579
G1 X86.997 Y90.696 E24.08156
G1 X87.562 Y89.051 E24.13941
G1 X88.49 Y87.569 E24.19756
G0 F6000 X88.797 Y87.832
G1 F900 X90.214 Y86.608 E24.25984
G1 X91.787 Y85.896 E24.31727
G1 X93.005 Y85.713 E24.35824
G1 X96.899 Y85.677 E24.48776
G1 X97.521 Y85.693 E24.50845
G1 X99.363 Y85.7 E24.56972
G1 X99.869 Y85.626 E24.58673
G1 X100.949 Y85.575 E24.62269
G1 X101.378 Y85.696 E24.63751
G1 X102.069 Y85.678 E24.6605
G1 X102.707 Y85.509 E24.68245
G1 X104.726 Y85.48 E24.74961
G1 X105.313 Y85.721 E24.77072
G1 X114.82 Y85.659 E25.08693
G1 X115.099 Y85.643 E25.09622
G1 X115.499 Y85.532 E25.11003
G1 X117.013 Y85.499 E25.1604
G1 X117.534 Y85.617 E25.17817
G1 X118.253 Y85.665 E25.20213
G1 X118.782 Y85.671 E25.21973
G1 X119.532 Y85.504 E25.24529
G1 X120.531 Y85.684 E25.27905
G1 X121.075 Y85.692 E25.29714
G1 X126.646 Y85.676 E25.48244
G1 X128.364 Y86.089 E25.5412
G1 X129.821 Y87.004 E25.59843
G1 X130.873 Y87.999 E25.64659
G1 X131.579 Y89.238 E25.69402
G1 X131.641 Y89.382 E25.69923
G1 X131.905 Y89.762 E25.71462
G1 X132.582 Y91.608 E25.78002
G1 X132.582 Y95.561 E25.9115
G1 X132.66 Y95.749 E25.91827
G1 X133.093 Y97.24 E25.96991
G1 X133.093 Y127.665 E26.98185
G1 X132.448 Y129.499 E27.04651
G1 X131.512 Y130.969 E27.10447
G1 X129.94 Y132.217 E27.17123
G1 X128.464 Y132.865 E27.22484
G1 X127.286 Y133.113 E27.26488
G1 X92.38 Y133.118 E28.42586
G1 X90.504 Y132.46 E28.49198
G1 X89.065 Y131.546 E28.54868
G1 X87.808 Y129.965 E28.61586
G1 X87.16 Y128.489 E28.66948
G1 X86.912 Y127.311 E28.70952
G1 X86.907 Y97.164 E29.71221
G1 X87.383 Y95.667 E29.76446
G1 X87.417 Y95.586 E29.76738
G1 X87.431 Y92.63 E29.8657
G1 X87.381 Y92.077 E29.88416
G1 X87.396 Y90.764 E29.92784
G1 X87.925 Y89.225 E29.98196
G1 X88.797 Y87.832 E30.03662
G0 F6000 X89.103 Y88.097
G1 F900 X90.434 Y86.947 E30.09513
G1 X91.899 Y86.284 E30.14861
G1 X93.064 Y86.109 E30.1878
G1 X96.889 Y86.077 E30.31502
G1 X97.511 Y86.093 E30.33571
G1 X99.394 Y86.1 E30.39834
G1 X99.888 Y86.026 E30.41496
G1 X100.905 Y85.978 E30.44882
G1 X101.329 Y86.097 E30.46347
G1 X102.128 Y86.077 E30.49005
G1 X102.764 Y85.908 E30.51194
G1 X104.65 Y85.881 E30.57467
G1 X105.235 Y86.122 E30.59572
G1 X114.824 Y86.059 E30.91466
G1 X115.164 Y86.04 E30.92598
G1 X115.556 Y85.931 E30.93951
G1 X116.974 Y85.9 E30.98669
G1 X117.477 Y86.014 E31.00384
G1 X118.239 Y86.065 E31.02924
G1 X118.822 Y86.072 E31.04864
G1 X119.538 Y85.912 E31.07304
G1 X120.491 Y86.084 E31.10525
G1 X121.07 Y86.092 E31.12451
G1 X126.599 Y86.076 E31.3084
G1 X128.206 Y86.462 E31.36337
G1 X129.578 Y87.324 E31.41726
G1 X130.554 Y88.248 E31.46196
G1 X131.211 Y89.396 E31.50596
G1 X131.287 Y89.573 E31.51237
G1 X131.545 Y89.944 E31.5274
G1 X132.182 Y91.681 E31.58893
G1 X132.182 Y95.645 E31.72077
G1 X132.276 Y95.861 E31.72861
G1 X132.693 Y97.297 E31.77834
G1 X132.693 Y127.597 E32.78613
G1 X132.086 Y129.323 E32.84698
G1 X131.211 Y130.697 E32.90116
G1 X129.731 Y131.872 E32.96401
G1 X128.34 Y132.483 E33.01454
G1 X127.247 Y132.713 E33.05169
G1 X92.446 Y132.718 E34.20918
G1 X90.682 Y132.099 E34.27136
G1 X89.336 Y131.244 E34.32439
G1 X88.153 Y129.756 E34.38762
G1 X87.542 Y128.365 E34.43815
G1 X87.312 Y127.272 E34.4753
G1 X87.307 Y97.225 E35.47467
G1 X87.751 Y95.824 E35.52355
G1 X87.817 Y95.669 E35.52915
G1 X87.831 Y92.615 E35.63073
G1 X87.781 Y92.081 E35.64857
G1 X87.795 Y90.832 E35.69011
G1 X88.288 Y89.399 E35.74051
G1 X89.103 Y88.097 E35.7916
G0 F6000 X89.41 Y88.36
G1 F900 X90.652 Y87.287 E35.84619
G1 X92.011 Y86.672 E35.89581
G1 X93.123 Y86.505 E35.93321
G1 X96.879 Y86.477 E36.05814
G1 X97.501 Y86.493 E36.07883
G1 X99.42 Y86.5 E36.14266
G1 X99.907 Y86.426 E36.15904
G1 X100.861 Y86.381 E36.19081
G1 X101.28 Y86.499 E36.20528
G1 X102.187 Y86.476 E36.23546
G1 X102.821 Y86.307 E36.25728
G1 X104.573 Y86.282 E36.31556
G1 X105.156 Y86.523 E36.33654
G1 X114.83 Y86.459 E36.65831
G1 X115.234 Y86.436 E36.67177
G1 X115.617 Y86.33 E36.68499
G1 X116.934 Y86.301 E36.7288
G1 X117.418 Y86.411 E36.74531
G1 X118.225 Y86.465 E36.77221
G1 X118.863 Y86.473 E36.79343
G1 X119.545 Y86.32 E36.81668
G1 X120.451 Y86.483 E36.8473
G1 X121.065 Y86.492 E36.86772
G1 X126.551 Y86.476 E37.05019
G1 X128.048 Y86.836 E37.1014
G1 X129.335 Y87.644 E37.15194
G1 X130.236 Y88.497 E37.19321
G1 X130.844 Y89.555 E37.23379
G1 X130.936 Y89.768 E37.24151
G1 X131.185 Y90.126 E37.25601
G1 X131.782 Y91.754 E37.31369
G1 X131.782 Y95.733 E37.44603
G1 X131.892 Y95.973 E37.45481
G1 X132.293 Y97.354 E37.50264
G1 X132.293 Y127.529 E38.50626
G1 X131.724 Y129.147 E38.56331
G1 X130.91 Y130.425 E38.6137
G1 X129.522 Y131.527 E38.67265
G1 X128.216 Y132.101 E38.7201
G1 X127.208 Y132.313 E38.75436
G1 X92.512 Y132.318 E39.90835
G1 X90.862 Y131.739 E39.96651
G1 X89.606 Y130.941 E40.01601
G1 X88.498 Y129.547 E40.07523
G1 X87.924 Y128.241 E40.12268
G1 X87.712 Y127.233 E40.15694
G1 X87.707 Y97.286 E41.15298
G1 X88.132 Y95.945 E41.19977
G1 X88.217 Y95.755 E41.20669
G1 X88.231 Y92.597 E41.31173
G1 X88.181 Y92.085 E41.32884
G1 X88.194 Y90.9 E41.36825
G1 X88.651 Y89.573 E41.41493
G1 X89.41 Y88.36 E41.46253
G0 F6000 X89.717 Y88.623
G1 F900 X90.87 Y87.627 E41.5132
G1 X92.123 Y87.06 E41.55894
G1 X93.182 Y86.901 E41.59456
G1 X96.869 Y86.877 E41.71719
G1 X97.491 Y86.893 E41.73789
G1 X99.448 Y86.9 E41.80298
G1 X99.926 Y86.826 E41.81907
G1 X100.816 Y86.784 E41.8487
G1 X101.23 Y86.901 E41.86301
G1 X102.242 Y86.875 E41.89668
G1 X102.874 Y86.706 E41.91844
G1 X104.495 Y86.683 E41.97236
G1 X105.077 Y86.924 E41.99331
G1 X114.834 Y86.859 E42.31784
G1 X115.299 Y86.833 E42.33333
G1 X115.674 Y86.729 E42.34627
G1 X116.894 Y86.702 E42.38686
G1 X117.359 Y86.808 E42.40272
G1 X118.211 Y86.865 E42.43112
G1 X118.904 Y86.874 E42.45417
G1 X119.552 Y86.728 E42.47627
G1 X120.411 Y86.882 E42.50529
G1 X121.06 Y86.892 E42.52688
G1 X126.504 Y86.876 E42.70795
G1 X127.89 Y87.209 E42.75536
G1 X129.092 Y87.964 E42.80257
G1 X129.919 Y88.747 E42.84045
G1 X130.477 Y89.714 E42.87758
G1 X130.586 Y89.965 E42.88669
G1 X130.826 Y90.311 E42.90069
G1 X131.382 Y91.827 E42.9544
G1 X131.382 Y95.826 E43.0874
G1 X131.508 Y96.085 E43.09698
G1 X131.893 Y97.411 E43.14291
G1 X131.893 Y127.461 E44.14238
G1 X131.362 Y128.971 E44.19561
G1 X130.609 Y130.153 E44.24223
G1 X129.313 Y131.182 E44.29727
G1 X128.092 Y131.719 E44.34163
G1 X127.169 Y131.913 E44.373
G1 X92.578 Y131.918 E45.5235
G1 X91.042 Y131.379 E45.57764
G1 X89.876 Y130.638 E45.62359
G1 X88.843 Y129.338 E45.67882
G1 X88.306 Y128.117 E45.72319
G1 X88.112 Y127.194 E45.75456
G1 X88.107 Y97.347 E46.74727
G1 X88.513 Y96.066 E46.79197
G1 X88.617 Y95.845 E46.80009
G1 X88.631 Y92.576 E46.90882
G1 X88.581 Y92.089 E46.9251
G1 X88.593 Y90.968 E46.96239
G1 X89.014 Y89.747 E47.00534
G1 X89.717 Y88.623 E47.04944
G0 F6000 X90.024 Y88.886
G1 F900 X91.088 Y87.967 E47.0962
G1 X92.235 Y87.448 E47.13807
G1 X93.241 Y87.297 E47.17191
G1 X96.859 Y87.277 E47.29224
G1 X97.481 Y87.293 E47.31294
G1 X99.479 Y87.3 E47.37939
G1 X99.945 Y87.226 E47.39509
G1 X100.772 Y87.187 E47.42262
G1 X101.181 Y87.302 E47.43675
G1 X102.298 Y87.274 E47.47392
G1 X102.928 Y87.105 E47.49561
G1 X104.419 Y87.084 E47.54521
G1 X104.94 Y87.301 E47.56398
G1 X105.267 Y87.323 E47.57488
G1 X114.838 Y87.259 E47.89322
G1 X115.364 Y87.23 E47.91074
G1 X115.731 Y87.128 E47.92341
G1 X116.854 Y87.103 E47.96077
G1 X117.3 Y87.205 E47.97599
G1 X118.197 Y87.265 E48.00589
G1 X118.945 Y87.275 E48.03077
G1 X119.56 Y87.136 E48.05174
G1 X120.372 Y87.281 E48.07918
G1 X121.055 Y87.292 E48.10189
G1 X126.456 Y87.276 E48.28153
G1 X127.732 Y87.583 E48.32518
G1 X128.849 Y88.284 E48.36905
G1 X129.6 Y88.995 E48.40344
G1 X130.13 Y89.914 E48.43873
G1 X130.233 Y90.159 E48.44757
G1 X130.467 Y90.496 E48.46121
G1 X130.982 Y91.9 E48.51095
G1 X130.982 Y95.923 E48.64476
G1 X131.124 Y96.197 E48.65502
G1 X131.493 Y97.468 E48.69904
G1 X131.493 Y127.393 E49.69435
G1 X131 Y128.795 E49.74378
G1 X130.308 Y129.881 E49.78661
G1 X129.104 Y130.837 E49.83775
G1 X127.968 Y131.337 E49.87903
G1 X127.13 Y131.513 E49.90751
G1 X92.644 Y131.518 E51.05452
G1 X91.222 Y131.019 E51.10464
G1 X90.146 Y130.335 E51.14705
G1 X89.188 Y129.129 E51.19827
G1 X88.688 Y127.993 E51.23955
G1 X88.512 Y127.155 E51.26803
G1 X88.507 Y97.408 E52.25742
G1 X88.894 Y96.187 E52.30003
G1 X89.017 Y95.941 E52.30917
G1 X89.031 Y92.552 E52.42189
G1 X88.981 Y92.093 E52.43725
G1 X88.992 Y91.037 E52.47237
G1 X89.378 Y89.92 E52.51168
G1 X90.024 Y88.886 E52.55223
G0 F6000 X90.33 Y89.151
G1 F900 X91.308 Y88.306 E52.59522
G1 X92.347 Y87.836 E52.63315
G1 X93.3 Y87.693 E52.6652
G1 X96.849 Y87.677 E52.78324
G1 X97.471 Y87.693 E52.80394
G1 X99.513 Y87.7 E52.87185
G1 X99.964 Y87.626 E52.88706
G1 X100.727 Y87.59 E52.91246
G1 X101.131 Y87.704 E52.92642
G1 X102.354 Y87.673 E52.96711
G1 X102.982 Y87.504 E52.98874
G1 X104.342 Y87.485 E53.03398
G1 X104.847 Y87.696 E53.05219
G1 X105.257 Y87.723 E53.06585
G1 X114.842 Y87.659 E53.38466
G1 X115.429 Y87.627 E53.40421
G1 X115.788 Y87.527 E53.4166
G1 X116.813 Y87.504 E53.4507
G1 X117.239 Y87.602 E53.46524
